!!!COM: Bach, Johann Sebastian
!!!CDT: 1685/3//-1750/7/28/
!!!OTL@@DE: Nun danket alle Gott
!!!OTL@EN:  From the depths of my heart
!!!AGN: 4-Part Chorale
!!!SCT: BH 032
!!!SCT: BWV 386
**harm	**root	**kern	**kern	**kern	**kern
!	!	!bass	!tenor	!alto	!soprno
*	*Iorgan	*Iorgan	*Iorgan	*Iorgan	*Iorgan
*M4/4	*M4/4	*M4/4	*M4/4	*M4/4	*M4/4
*met(c)	*met(c)	*met(c)	*met(c)	*met(c)	*met(c)
*MM60	*MM60	*MM60	*MM60	*MM60	*MM60
*k[f#c#g#d#]	*k[f#c#g#d#]	*k[f#c#g#d#]	*k[f#c#g#d#]	*k[f#c#g#d#]	*k[f#c#g#d#]
*E:	*E:	*E:	*E:	*E:	*E:
*>[A,A,B]	*>[A,A,B]	*>[A,A,B]	*>[A,A,B]	*>[A,A,B]	*>[A,A,B]
*>A	*>A	*>A	*>A	*>A	*>A
I	4AA	4EE	4G#	4e	4b
=1	=1	=1	=1	=1	=1
I	4AA	8E	4G#	4e	4b
.	.	8F#	.	.	.
Ib	4AA	8G#	4G#	4e	4b
.	.	8E	.	.	.
IV	4DD	8AA	4A	4e	4cc#
.	.	8BB	.	.	.
IVb	4DD	8C#	4A	4e	4cc#
.	.	8AA	.	.	.
=2	=2	=2	=2	=2	=2
I;	2AA;	2E;	2G#;	2e;	2b;
r	4r	4r	4r	4r	4r
vib	4FF#	4E	4c#	4e	4g#
=3	=3	=3	=3	=3	=3
V7b	4EE	4D#	4B	4f#	4a
I	4AA	4E	4B	4e	4g#
V7	4EE	8BB	4B	4d#	4f#
.	.	8AA	.	.	.
Ib	4AA	8GG#	4B	4e	8.g#
.	.	8EE	.	.	.
.	.	.	.	.	16a
=4	=4	=4	=4	=4	=4
V7	2EE	2BB	8B	8e	2f#
.	.	.	16A	8c#	.
.	.	.	16G#	.	.
.	.	.	4A	4d#	.
I;	4AA;	4EE;	4G#;	4B;	4e;
=:|!	=:|!	=:|!	=:|!	=:|!	=:|!
*>B	*>B	*>B	*>B	*>B	*>B
V	4EE	4BB	8F#	8d#	4f#
.	.	.	8E	8c#	.
=5	=5	=5	=5	=5	=5
V	4EE	8BB	8D#	4B	4f#
.	.	8C#	8E	.	.
Vb	4EE	8D#	4F#	4B	4f#
.	.	8BB	.	.	.
I	4AA	8EE	8F#	4B	4g#
.	.	8FF#	16E	.	.
.	.	.	16D#	.	.
Ib	4AA	8GG#	4E	4B	4g#
.	.	8EE	.	.	.
!!linebreak: 2
=6	=6	=6	=6	=6	=6
V;	2EE;	2BBB;	2D#;	2B;	2f#;
r	4r	4r	4r	4r	4r
V	4EE	4BB	4B	4d#	4f#
=7	=7	=7	=7	=7	=7
I	4AA	8E	4B	4e	8g#
.	.	8F#	.	.	8a#
iii	4CC#	8G#	4B	4d#	4b
.	.	8D#	.	.	.
vi7b	4FF#	8E	4G#	4c#	4b
.	.	8C#	.	.	.
V/V	4BB	8F#	4F#	4c#	4a#
.	.	8FF#	.	.	.
=8	=8	=8	=8	=8	=8
V;	2EE;	2BB;	2F#;	2d#;	2b;
r	4r	4r	4r	4r	4r
I	4AA	4EE	4G#	4e	4b
=9	=9	=9	=9	=9	=9
IV	4DD	8AA	4A	8e	4cc#
.	.	8GG#	.	8f#	.
vii/ii	4AA#	8FF#	4G#	4g#	4b
.	.	8EE#	.	.	.
ii	4BB	8FF#	4c#	8g#	4a
.	.	8AA	.	4f#	.
iiio7b	8CC#	8BB	8d	.	4g#
V/ii	8FF#	8C#	8c#	8e#	.
=10	=10	=10	=10	=10	=10
ii;	2BB;	2FF#;	2c#;	2f#;	2a;
r	4r	4r	4r	4r	4r
Ib	4AA	8GG#	4B	4e	4g#
.	.	8AA	.	.	.
=11	=11	=11	=11	=11	=11
V	4EE	4BB	4B	4d#	4f#
I	8AA	8E	8B	4e	8.g#
vi	8FF#	8C#	8c#	.	.
.	.	.	.	.	16a
ii7b	4BB	8AA	8c#	4e	4.f#
.	.	8FF#	8A	.	.
V	4EE	8BB	8.F#	4d#	.
.	.	8BBB	.	.	8e
.	.	.	16B	.	.
=12	=12	=12	=12	=12	=12
I;	2.AA;	2.EE;	2.G#;	2.B;	2.e;
==	==	==	==	==	==
*-	*-	*-	*-	*-	*-
!!chor2scor: -l 2 -s 0.6 -o %b.pmx
!!!YEC: Copyright 1994, David Huron
!!!YEC: Changes/Additions 2001 by Craig Stuart Sapp
!!!YEN: United States of America
!!!SMA: 371 Bach Chorales, edited by Ludwig Erk, C.F. Peters
!!!PDT: 1850, 1865
!!!ONB: Harmony and Root analysis done manually
